X: 1
T: the Lass o' Patie's Mill
O: Trad
M: C|
L: 1/8
B: BSFC XI-5
R: air/strathspey
Z: John Chambers <jc:trillian.mit.edu>
K: D
   A2 | "D"G>F ED     F2  A2 | d3 e f2 A2 | "G"B>c dc     BA GF | "Em"F4 "A7"E2 A>G \
      | "D"G>F ED     F2  A2 | d3 e f2 A2 | "G"B>c dB "A7"cd ef |  "D"d6 :|
|: f2 |"Em"g>f ed "A7"d>c BA | d3 e f2 A2 | "G"B>c dc     BA GF | "Em"F4 "A7"E2 A>G \
      | "D"G>F ED     F2  A2 | d3 e f2 A2 | "G"B>c dB "A7"cd ef |  "D"d6 :|
